svg/fluentui-system-icons/ic_fluent_notebook_section_20_regular.svg

<svg width="20" height="20" viewBox="0 0 20 20" fill="none" xmlns="http://www.w3.org/2000/svg">
<path d="M14 2.5C14 2.22386 13.7761 2 13.5 2C13.2239 2 13 2.22386 13 2.5V3H8C6.89543 3 6 3.89543 6 5V15C6 16.1046 6.89543 17 8 17H13V17.5C13 17.7761 13.2239 18 13.5 18C13.7761 18 14 17.7761 14 17.5V2.5ZM13 16H8C7.44772 16 7 15.5523 7 15V5C7 4.44772 7.44772 4 8 4H13V16Z" fill="#212121"/>
</svg>

<svg xmlns="http://www.w3.org/2000/svg" width="20" height="20"><path d="M14 2.5a.5.5 0 0 0-1 0V3H8a2 2 0 0 0-2 2v10a2 2 0 0 0 2 2h5v.5a.5.5 0 0 0 1 0v-15ZM13 16H8a1 1 0 0 1-1-1V5a1 1 0 0 1 1-1h5v12Z"/></svg>
